assets/svg/invite-consumer.svg

<svg width="20" height="15" viewBox="0 0 20 15" fill="none" xmlns="http://www.w3.org/2000/svg">
<path d="M15.4545 9.375V6.5625H12.7273V4.6875H15.4545V1.875H17.2727V4.6875H20V6.5625H17.2727V9.375H15.4545ZM7.27273 7.5C6.27273 7.5 5.41667 7.13281 4.70455 6.39844C3.99242 5.66406 3.63636 4.78125 3.63636 3.75C3.63636 2.71875 3.99242 1.83594 4.70455 1.10156C5.41667 0.367188 6.27273 0 7.27273 0C8.27273 0 9.12879 0.367188 9.84091 1.10156C10.553 1.83594 10.9091 2.71875 10.9091 3.75C10.9091 4.78125 10.553 5.66406 9.84091 6.39844C9.12879 7.13281 8.27273 7.5 7.27273 7.5ZM0 15V12.375C0 11.8438 0.132576 11.3555 0.397727 10.9102C0.662879 10.4648 1.01515 10.125 1.45455 9.89062C2.39394 9.40625 3.34848 9.04297 4.31818 8.80078C5.28788 8.55859 6.27273 8.4375 7.27273 8.4375C8.27273 8.4375 9.25758 8.55859 10.2273 8.80078C11.197 9.04297 12.1515 9.40625 13.0909 9.89062C13.5303 10.125 13.8826 10.4648 14.1477 10.9102C14.4129 11.3555 14.5455 11.8438 14.5455 12.375V15H0ZM1.81818 13.125H12.7273V12.375C12.7273 12.2031 12.6856 12.0469 12.6023 11.9062C12.5189 11.7656 12.4091 11.6562 12.2727 11.5781C11.4545 11.1562 10.6288 10.8398 9.79545 10.6289C8.96212 10.418 8.12121 10.3125 7.27273 10.3125C6.42424 10.3125 5.58333 10.418 4.75 10.6289C3.91667 10.8398 3.09091 11.1562 2.27273 11.5781C2.13636 11.6562 2.02652 11.7656 1.94318 11.9062C1.85985 12.0469 1.81818 12.2031 1.81818 12.375V13.125ZM7.27273 5.625C7.77273 5.625 8.20076 5.44141 8.55682 5.07422C8.91288 4.70703 9.09091 4.26562 9.09091 3.75C9.09091 3.23438 8.91288 2.79297 8.55682 2.42578C8.20076 2.05859 7.77273 1.875 7.27273 1.875C6.77273 1.875 6.3447 2.05859 5.98864 2.42578C5.63258 2.79297 5.45455 3.23438 5.45455 3.75C5.45455 4.26562 5.63258 4.70703 5.98864 5.07422C6.3447 5.44141 6.77273 5.625 7.27273 5.625Z" fill="#3D70D2"/>
</svg>

<svg xmlns="http://www.w3.org/2000/svg" width="20" height="15" viewBox="0 0 20 15"><path d="M15.455 9.375V6.563h-2.728V4.688h2.727V1.874h1.819v2.813H20v1.875h-2.727v2.812zM7.272 7.5q-1.5 0-2.568-1.102-1.07-1.101-1.069-2.648 0-1.547 1.069-2.648T7.273 0 9.84 1.102t1.068 2.648T9.84 6.398 7.273 7.5M0 15v-2.625q0-.797.398-1.465a2.7 2.7 0 0 1 1.057-1.02A13.2 13.2 0 0 1 4.318 8.8q1.455-.362 2.955-.363 1.5 0 2.954.364 1.455.363 2.864 1.09.66.351 1.057 1.02.398.667.398 1.464V15zm1.818-1.875h10.91v-.75a.9.9 0 0 0-.455-.797 11.6 11.6 0 0 0-2.478-.95 10.24 10.24 0 0 0-5.045 0q-1.25.318-2.477.95a.9.9 0 0 0-.33.328.9.9 0 0 0-.125.469zm5.455-7.5q.75 0 1.284-.55.534-.552.534-1.325 0-.774-.534-1.324a1.73 1.73 0 0 0-1.284-.551q-.75 0-1.284.55a1.83 1.83 0 0 0-.534 1.325q0 .774.534 1.324t1.284.551"/></svg>
